X:11573
T:My Love She's But a Lassie Yet
R:Polka
S:
H:
N:
D:John Carty:At The Racket
Z:Adrian Scahill
M:2/4
L:1/16
K:D
fe|d2A2 F2A2|d3c defe|d2A2 F2A2|B2e2 e2fe|\
d2A2 F2A2|B2g2 f3e|dBAF ABde|1 f2d2 d2fe:|2 f2d2 d4||\
a2fa g2eg|f2d2 defg|a2fa gfga|b2e2 e2fg|\
a2fa g2e2|f2d2 f3e|dBAF ABde|f2d2 d4:||\
